X:105
T:Gingerhogs No. 2
R:slip jig
C:Phil Cunningham, Scotland
Z:id:hn-slipjig-105
M:9/8
L:1/8
K:D
Add fdd e2f | Add efd GdB | Add fdd e2f | GBd Afd e2d :|
|: adf fef def | adf efd B2A | adf fed BAF | GBd Afd e2d :|

